public/img/img2.svg

<svg width="20" height="18" viewBox="0 0 20 18" fill="none" xmlns="http://www.w3.org/2000/svg">
<path d="M18.9726 0.978285L0.548796 10.5489C-0.209082 10.9424 -0.17799 11.5191 0.617199 11.831L2.96934 12.7519C3.76298 13.063 4.96625 12.8944 5.64096 12.3716L15.8564 4.3918C16.528 3.86741 16.6003 3.94519 16.0165 4.56429L7.94024 13.1293C7.35493 13.7461 7.52905 14.5022 8.32501 14.8095L8.60018 14.9165C9.39615 15.2214 10.6974 15.7343 11.4894 16.0546L14.0981 17.1064C14.891 17.426 15.5392 17.6909 15.5392 17.6955C15.5392 17.7001 15.5439 17.7148 15.5478 17.7155C15.5517 17.7171 15.739 17.0502 15.9629 16.2325L19.9411 1.75062C20.165 0.932083 19.7305 0.585573 18.9726 0.978285Z" fill="#0AD69C"/>
</svg>

<svg width="20" height="18" fill="none" xmlns="http://www.w3.org/2000/svg"><path d="M18.973.978L.549 10.548c-.758.394-.727.971.068 1.283l2.352.92c.794.312 1.997.143 2.672-.38l10.215-7.98c.672-.524.744-.446.16.173L7.94 13.13c-.585.617-.411 1.373.385 1.68l.275.107c.796.305 2.097.818 2.89 1.139l2.608 1.051c.793.32 1.441.585 1.441.59 0 .004.005.019.009.02.004.001.191-.666.415-1.483L19.94 1.75c.224-.819-.21-1.165-.968-.773z" fill="#0AD69C"/></svg>
